img/footer/footer-logo.svg

<svg width="230" height="22" viewBox="0 0 230 22" fill="none" xmlns="http://www.w3.org/2000/svg">
<g clip-path="url(#clip0_1245_117)">
<path d="M24.5657 2.90796V6.79576H15.0588V20.3823H9.54765V6.79576H0.0407715V2.90796H24.5657Z" fill="#B7B7B7"/>
<path d="M44.9403 2.90796C46.1383 2.90796 47.2287 3.19216 48.2127 3.75919C49.1955 4.3276 49.9808 5.08777 50.566 6.0411C51.1512 6.99442 51.4438 8.0526 51.4438 9.21286C51.4438 10.3745 51.1512 11.4341 50.566 12.3915C49.9808 13.349 49.1955 14.1106 48.2127 14.6734C47.2287 15.2363 46.1383 15.5178 44.9403 15.5178H32.6702V20.381H27.1729V2.90796H27.4144H32.6702H44.9403ZM43.4372 11.6438C44.126 11.6438 44.7153 11.4051 45.2067 10.9291C45.698 10.4532 45.9437 9.8806 45.9437 9.21286C45.9437 8.54512 45.698 7.97396 45.2067 7.4966C44.7153 7.02063 44.1246 6.78196 43.4372 6.78196H32.6688V11.6452H43.4372V11.6438Z" fill="#B7B7B7"/>
<path d="M68.2851 2.90796L77.9535 20.381H71.8391L69.9483 16.7401H58.6043L56.7134 20.381H50.5991L60.2675 2.90796H68.2851ZM68.1098 13.1917L64.2742 5.75551L60.4262 13.1917H68.1098Z" fill="#B7B7B7"/>
<path d="M91.1855 16.9359C91.5789 16.9359 92.1089 16.9165 92.7741 16.8779C93.4394 16.8393 94.135 16.7179 94.8596 16.5137C95.5842 16.3109 96.2453 15.9743 96.8444 15.5066C97.4434 15.0389 97.8809 14.3849 98.1583 13.5434H103.777C103.446 15.9274 102.24 17.7319 100.157 18.9584C98.0741 20.1849 95.0832 20.7975 91.1855 20.7975C86.9207 20.7975 83.7407 20.0607 81.6441 18.5873C79.5476 17.1138 78.5 14.9561 78.5 12.1127V11.1511C78.5 8.30766 79.5476 6.14992 81.6441 4.67648C83.7407 3.20303 86.9207 2.46631 91.1855 2.46631C95.0832 2.46631 98.0727 3.08025 100.157 4.30536C102.24 5.53185 103.446 7.33227 103.777 9.70799H98.1583C97.8809 8.87607 97.4434 8.22626 96.8444 7.75719C96.2453 7.2895 95.5842 6.95287 94.8596 6.75006C94.135 6.54588 93.4408 6.42447 92.7741 6.38584C92.1075 6.34721 91.5789 6.3279 91.1855 6.3279C90.828 6.3279 90.3518 6.34307 89.757 6.37342C89.1621 6.40377 88.5341 6.49759 87.873 6.65349C87.2119 6.80938 86.5853 7.06462 85.9959 7.42056C85.4066 7.7765 84.9207 8.27179 84.5412 8.90918C84.1616 9.54657 83.9711 10.3716 83.9711 11.3856V11.8671C83.9711 12.8811 84.1616 13.7062 84.5412 14.3435C84.9207 14.9809 85.4066 15.479 85.9959 15.8391C86.5853 16.1991 87.2119 16.4571 87.873 16.613C88.5341 16.7689 89.1621 16.8628 89.757 16.8931C90.3518 16.9207 90.828 16.9359 91.1855 16.9359Z" fill="#B7B7B7"/>
<path d="M130.214 2.90796V6.79576H120.707V20.3823H115.196V6.79576H105.689V2.90796H130.214Z" fill="#B7B7B7"/>
<path d="M142.31 2.5769H141.552V20.3355H142.31V2.5769Z" fill="#B7B7B7"/>
<path d="M153.434 5.89765C153.434 4.95812 153.668 4.23105 154.134 3.71783C154.601 3.20461 155.233 2.948 156.029 2.948C156.675 2.948 157.219 3.12045 157.661 3.46398C158.102 3.80889 158.366 4.30003 158.451 4.9388L157.547 5.02434C157.476 4.587 157.302 4.25451 157.026 4.02963C156.75 3.80337 156.417 3.69024 156.029 3.69024C155.527 3.69024 155.125 3.88615 154.823 4.27658C154.522 4.66702 154.37 5.20783 154.37 5.89627C154.37 6.5847 154.522 7.12551 154.828 7.51595C155.133 7.90639 155.541 8.10229 156.05 8.10229C156.451 8.10229 156.791 7.98227 157.067 7.74221C157.343 7.50216 157.521 7.16001 157.6 6.71439L158.504 6.79026C158.418 7.44283 158.152 7.94915 157.707 8.30786C157.263 8.66656 156.71 8.84592 156.05 8.84592C155.238 8.84592 154.601 8.59206 154.134 8.0816C153.668 7.57251 153.434 6.84407 153.434 5.89765Z" fill="#B7B7B7"/>
<path d="M160.044 3.07764H164.005V8.71618H163.058V3.85161H160.883C160.861 4.16064 160.834 4.58695 160.798 5.1319C160.769 5.66306 160.745 6.0466 160.727 6.28389C160.709 6.52119 160.679 6.81506 160.636 7.16686C160.593 7.51867 160.542 7.76561 160.486 7.90909C160.428 8.05258 160.349 8.20848 160.248 8.37679C160.148 8.54511 160.026 8.65686 159.883 8.71067C159.739 8.76447 159.567 8.79068 159.366 8.79068C159.259 8.79068 159.104 8.77688 158.904 8.74791V7.99464C158.976 8.00154 159.061 8.00567 159.162 8.00567C159.319 8.00567 159.445 7.93807 159.539 7.80149C159.631 7.6649 159.709 7.39449 159.771 6.98888C159.832 6.58327 159.873 6.22595 159.895 5.91829C159.917 5.60926 159.945 5.07534 159.981 4.31516C160.008 3.78401 160.029 3.3715 160.044 3.07764Z" fill="#B7B7B7"/>
<path d="M169.345 3.07764H170.357L168.258 9.36185C168.064 9.98544 167.834 10.4145 167.569 10.6477C167.304 10.8808 166.901 10.9981 166.363 10.9981C166.183 10.9981 165.975 10.9871 165.739 10.9664V10.2352C165.997 10.249 166.187 10.2572 166.309 10.2572C166.603 10.2572 166.825 10.1855 166.977 10.042C167.127 9.89852 167.268 9.62536 167.396 9.22389L167.558 8.71756H167.031L164.9 3.07901H165.933L167.786 8.34092L169.345 3.07764Z" fill="#B7B7B7"/>
<path d="M179.077 8.71634H177.915L176.02 6.23025H175.32V8.71634H174.394V6.23025H173.694L171.799 8.71634H170.637L172.984 5.78877L170.723 3.07642H171.842L173.661 5.48663H174.393V3.0778H175.319V5.48801H176.05L177.87 3.0778H178.989L176.728 5.79014L179.077 8.71634Z" fill="#B7B7B7"/>
<path d="M182.35 3.25015C183.096 3.25015 183.7 3.50124 184.158 4.00342C184.617 4.50561 184.847 5.18715 184.847 6.04804C184.847 6.91582 184.608 7.60012 184.13 8.09817C183.653 8.59759 183.005 8.84592 182.187 8.84592C180.406 8.84592 179.518 7.65116 179.518 5.26303C179.518 4.00756 179.693 3.0501 180.045 2.38926C180.397 1.72979 180.971 1.31728 181.767 1.15173C181.918 1.11586 182.074 1.0855 182.235 1.06067C182.397 1.03584 182.569 1.01239 182.751 0.990313C182.934 0.968239 183.073 0.950302 183.165 0.936506C183.639 0.864765 184.012 0.775092 184.285 0.66748V1.40972C184.092 1.53113 183.758 1.62908 183.284 1.70082C183.177 1.716 183.011 1.73669 182.789 1.76566C182.566 1.79464 182.38 1.81947 182.228 1.84154C181.934 1.87741 181.685 1.94364 181.48 2.04021C181.276 2.13678 181.076 2.2913 180.883 2.50239C180.689 2.71347 180.535 3.02113 180.42 3.4226C180.306 3.82407 180.23 4.3235 180.194 4.91812C180.344 4.39524 180.605 3.98549 180.975 3.69163C181.348 3.39776 181.805 3.25015 182.35 3.25015ZM182.188 8.10368C182.72 8.10368 183.139 7.91881 183.448 7.54907C183.758 7.17933 183.911 6.67991 183.911 6.04804C183.911 5.41617 183.756 4.91674 183.448 4.547C183.139 4.17726 182.72 3.99238 182.188 3.99238C181.65 3.99238 181.226 4.17726 180.918 4.547C180.609 4.91674 180.456 5.41754 180.456 6.04804C180.456 6.67991 180.611 7.17933 180.918 7.54907C181.228 7.91881 181.651 8.10368 182.188 8.10368Z" fill="#B7B7B7"/>
<path d="M185.602 7.24287C185.602 6.23161 186.341 5.65354 187.82 5.51006L189.499 5.34864V4.81059C189.499 4.45878 189.386 4.17458 189.16 3.95521C188.933 3.73585 188.602 3.631 188.165 3.6379C187.763 3.6379 187.433 3.72896 187.174 3.91245C186.916 4.09594 186.775 4.37048 186.754 4.73608H185.882C185.904 4.12629 186.122 3.67653 186.539 3.38543C186.954 3.09432 187.497 2.94946 188.165 2.94946C188.904 2.94946 189.468 3.12468 189.855 3.47648C190.243 3.82829 190.436 4.33323 190.436 4.99407V8.7177H189.575V7.55604C189.396 7.96441 189.122 8.28173 188.757 8.50799C188.391 8.73425 187.945 8.84738 187.422 8.84738C186.819 8.84738 186.365 8.69838 186.06 8.40038C185.753 8.10238 185.602 7.71609 185.602 7.24287ZM186.539 7.20976C186.539 7.48983 186.635 7.71885 186.83 7.8982C187.025 8.07755 187.314 8.16723 187.702 8.16723C188.254 8.16723 188.693 7.99339 189.016 7.64572C189.339 7.29806 189.501 6.8483 189.501 6.29506V5.95016L187.929 6.11158C187.001 6.19849 186.539 6.5641 186.539 7.20976Z" fill="#B7B7B7"/>
<path d="M153.757 19.7533V14.1147H154.704V16.4932H157.622V14.1147H158.559V19.7533H157.622V17.2672H154.704V19.7533H153.757Z" fill="#B7B7B7"/>
<path d="M159.667 16.9346C159.667 15.973 159.909 15.2418 160.393 14.7396C160.878 14.2374 161.522 13.9863 162.326 13.9863C163.151 13.9863 163.78 14.2416 164.215 14.7506C164.648 15.2597 164.866 16.0351 164.866 17.0753V17.205H160.614C160.65 17.8507 160.828 18.3446 161.147 18.6853C161.466 19.0261 161.884 19.1972 162.401 19.1972C163.133 19.1972 163.633 18.8744 163.898 18.2287L164.791 18.2825C164.64 18.7847 164.36 19.1779 163.951 19.4607C163.543 19.7435 163.025 19.8856 162.401 19.8856C161.562 19.8856 160.896 19.6359 160.404 19.1379C159.913 18.6371 159.667 17.9031 159.667 16.9346ZM160.625 16.5786H163.931C163.924 15.9909 163.775 15.526 163.484 15.1852C163.192 14.8445 162.807 14.6734 162.327 14.6734C161.853 14.6734 161.462 14.8362 161.154 15.1631C160.845 15.4901 160.668 15.962 160.625 16.5786Z" fill="#B7B7B7"/>
<path d="M170.336 18.9794H170.993V21.271H170.1V19.7534H166.236V21.271H165.343V18.9794H165.762C165.848 18.7932 165.922 18.5683 165.983 18.3061C166.044 18.044 166.098 17.637 166.145 17.0852C166.192 16.5333 166.223 16.1263 166.241 15.8642C166.259 15.6021 166.294 15.0199 166.343 14.1162H170.338V18.9794H170.336ZM169.388 18.9794V14.8902H167.159C167.029 16.7334 166.926 17.8785 166.847 18.3227C166.796 18.5807 166.74 18.8001 166.675 18.9794H169.388Z" fill="#B7B7B7"/>
<path d="M174.932 16.8478C176.038 16.9485 176.59 17.4079 176.59 18.2247C176.59 18.6689 176.429 19.0359 176.106 19.3228C175.783 19.6098 175.266 19.7533 174.556 19.7533H171.896V14.1147H174.426C175.079 14.1147 175.574 14.2444 175.911 14.5024C176.248 14.7604 176.418 15.1053 176.418 15.5358C176.419 16.267 175.923 16.7043 174.932 16.8478ZM172.844 14.8253V16.5691H174.351C174.731 16.5691 175.014 16.4905 175.196 16.3318C175.38 16.1745 175.471 15.9621 175.471 15.6972C175.471 15.1164 175.08 14.8253 174.298 14.8253H172.844ZM174.448 19.0442C175.244 19.0442 175.643 18.7324 175.643 18.1074C175.643 17.4976 175.226 17.1927 174.394 17.1927H172.844V19.0442H174.448Z" fill="#B7B7B7"/>
<path d="M181.252 14.1147H182.663V19.7533H181.759V14.7921L179.132 19.7533H177.711V14.1147H178.626V19.0759L181.252 14.1147Z" fill="#B7B7B7"/>
<path d="M191.91 19.7532H190.748L188.853 17.2671H188.154V19.7532H187.227V17.2671H186.528L184.633 19.7532H183.47L185.817 16.8256L183.556 14.1133H184.675L186.495 16.5235H187.226V14.1147H188.152V16.5249H188.884L190.703 14.1147H191.822L189.561 16.827L191.91 19.7532Z" fill="#B7B7B7"/>
<path d="M196.259 14.1147H197.67V19.7533H196.766V14.7921L194.139 19.7533H192.718V14.1147H193.633V19.0759L196.259 14.1147Z" fill="#B7B7B7"/>
<path d="M204.28 14.1147H205.852V19.7533H204.937V14.7715L203.064 19.7533H201.88L200.018 14.7715V19.7533H199.103V14.1147H200.686L202.484 19.2373L204.28 14.1147Z" fill="#B7B7B7"/>
<path d="M207.688 19.0923C207.203 18.5653 206.96 17.8452 206.96 16.9346C206.96 16.024 207.203 15.3039 207.688 14.7769C208.172 14.2498 208.819 13.9863 209.631 13.9863C210.442 13.9863 211.088 14.2498 211.569 14.7769C212.049 15.3039 212.291 16.024 212.291 16.9346C212.291 17.8452 212.05 18.5653 211.569 19.0923C211.088 19.6194 210.442 19.8829 209.631 19.8829C208.819 19.8829 208.172 19.6194 207.688 19.0923ZM208.365 15.3315C208.053 15.7329 207.897 16.2682 207.897 16.9346C207.897 17.6023 208.053 18.1363 208.365 18.5377C208.677 18.9392 209.1 19.1406 209.631 19.1406C210.154 19.1406 210.574 18.9392 210.886 18.5377C211.197 18.1363 211.353 17.601 211.353 16.9346C211.353 16.2669 211.197 15.7329 210.886 15.3315C210.574 14.93 210.155 14.7286 209.631 14.7286C209.1 14.7286 208.677 14.9286 208.365 15.3315Z" fill="#B7B7B7"/>
<path d="M213.074 16.9348C213.074 15.9952 213.308 15.2682 213.774 14.7549C214.241 14.2417 214.873 13.9851 215.669 13.9851C216.315 13.9851 216.859 14.1576 217.301 14.5011C217.742 14.846 218.006 15.3371 218.092 15.9759L217.187 16.0614C217.116 15.6241 216.942 15.2916 216.666 15.0667C216.39 14.8405 216.057 14.7273 215.669 14.7273C215.167 14.7273 214.765 14.9233 214.463 15.3137C214.162 15.7041 214.01 16.2449 214.01 16.9334C214.01 17.6218 214.162 18.1626 214.468 18.5531C214.774 18.9435 215.181 19.1394 215.69 19.1394C216.092 19.1394 216.431 19.0194 216.707 18.7793C216.983 18.5393 217.161 18.1971 217.24 17.7515L218.144 17.8274C218.058 18.4799 217.792 18.9863 217.348 19.345C216.903 19.7037 216.35 19.883 215.69 19.883C214.878 19.883 214.241 19.6292 213.774 19.1187C213.308 18.6096 213.074 17.8812 213.074 16.9348Z" fill="#B7B7B7"/>
<path d="M218.587 14.8901V14.1147H223.346V14.8901H221.44V19.7547H220.493V14.8901H218.587Z" fill="#B7B7B7"/>
<path d="M227.823 14.1147H229.234V19.7533H228.33V14.7921L225.703 19.7533H224.282V14.1147H225.197V19.0759L227.823 14.1147Z" fill="#B7B7B7"/>
</g>
<defs>
<clipPath id="clip0_1245_117">
<rect width="230" height="22" fill="white"/>
</clipPath>
</defs>
</svg>

<svg width="230" height="22" fill="none" xmlns="http://www.w3.org/2000/svg"><g clip-path="url(#clip0_1245_117)" fill="#B7B7B7"><path d="M24.566 2.908v3.888h-9.507v13.586H9.548V6.796H.04V2.908h24.525zm20.374 0c1.198 0 2.289.284 3.273.851a6.58 6.58 0 012.353 2.282c.585.953.878 2.012.878 3.172a5.976 5.976 0 01-.878 3.179 6.5 6.5 0 01-2.353 2.281c-.984.563-2.075.845-3.273.845H32.67v4.863h-5.497V2.908H44.94zm-1.503 8.736c.689 0 1.278-.239 1.77-.715.491-.476.737-1.048.737-1.716 0-.668-.246-1.239-.737-1.716a2.455 2.455 0 00-1.77-.715H32.67v4.863h10.768v-.001zm24.848-8.736l9.669 17.473h-6.115l-1.89-3.64H58.603l-1.89 3.64h-6.115l9.669-17.473h8.017zm-.175 10.284l-3.836-7.436-3.848 7.436h7.684zm23.076 3.744c.393 0 .923-.02 1.588-.058a9.789 9.789 0 002.086-.364 5.69 5.69 0 001.984-1.007c.6-.468 1.037-1.122 1.314-1.964h5.619c-.331 2.384-1.537 4.189-3.62 5.415-2.083 1.227-5.074 1.84-8.971 1.84-4.265 0-7.445-.737-9.542-2.21-2.096-1.474-3.144-3.632-3.144-6.475v-.962c0-2.843 1.048-5.001 3.144-6.475 2.097-1.473 5.277-2.21 9.541-2.21 3.898 0 6.888.614 8.972 1.84 2.083 1.226 3.289 3.026 3.62 5.402h-5.619c-.277-.832-.715-1.482-1.314-1.95A5.69 5.69 0 0094.86 6.75a9.777 9.777 0 00-2.086-.364 28.917 28.917 0 00-1.588-.058c-.358 0-.834.015-1.429.045-.595.03-1.223.125-1.884.28a6.496 6.496 0 00-1.877.768 4.228 4.228 0 00-1.455 1.488c-.38.638-.57 1.463-.57 2.477v.481c0 1.014.19 1.84.57 2.476.38.638.866 1.136 1.455 1.496.59.36 1.216.618 1.877.774.661.156 1.29.25 1.884.28.595.028 1.071.043 1.428.043zm39.028-14.028v3.888h-9.507v13.586h-5.511V6.796h-9.507V2.908h24.525zm12.096-.331h-.758v17.759h.758V2.576zm11.124 3.321c0-.94.234-1.667.7-2.18.467-.513 1.099-.77 1.895-.77.646 0 1.19.172 1.632.516.441.345.705.836.79 1.475l-.904.085c-.071-.437-.245-.77-.521-.994a1.523 1.523 0 00-.997-.34c-.502 0-.904.196-1.206.587-.301.39-.453.93-.453 1.62 0 .688.152 1.229.458 1.619.305.39.713.586 1.222.586.401 0 .741-.12 1.017-.36.276-.24.454-.582.533-1.028l.904.076c-.086.653-.352 1.16-.797 1.518-.444.359-.997.538-1.657.538-.812 0-1.449-.254-1.916-.764-.466-.51-.7-1.238-.7-2.184zm6.61-2.82h3.961v5.638h-.947V3.852h-2.175c-.022.309-.049.735-.085 1.28-.029.531-.053.915-.071 1.152-.018.237-.048.531-.091.883s-.094.599-.15.742c-.058.144-.137.3-.238.468a.737.737 0 01-.365.334c-.144.053-.316.08-.517.08a3.46 3.46 0 01-.462-.043v-.753c.072.007.157.01.258.01a.436.436 0 00.377-.204c.092-.136.17-.407.232-.812.061-.406.102-.763.124-1.07.022-.31.05-.844.086-1.604l.063-1.237zm9.301 0h1.012l-2.099 6.284c-.194.623-.424 1.053-.689 1.286-.265.233-.668.35-1.206.35-.18 0-.388-.01-.624-.032v-.73c.258.013.448.021.57.021.294 0 .516-.072.668-.215.15-.143.291-.417.419-.818l.162-.506h-.527L164.9 3.079h1.033l1.853 5.262 1.559-5.263zm9.732 5.638h-1.162L176.02 6.23h-.7v2.486h-.926V6.23h-.7l-1.895 2.486h-1.162l2.347-2.927-2.261-2.713h1.119l1.819 2.41h.732V3.079h.926v2.41h.731l1.82-2.41h1.119l-2.261 2.712 2.349 2.926zm3.273-5.466c.746 0 1.35.251 1.808.753.459.503.689 1.184.689 2.045 0 .868-.239 1.552-.717 2.05-.477.5-1.125.748-1.943.748-1.781 0-2.669-1.195-2.669-3.583 0-1.255.175-2.213.527-2.874.352-.66.926-1.072 1.722-1.237.151-.036.307-.067.468-.091.162-.025.334-.049.516-.07.183-.023.322-.04.414-.054.474-.072.847-.162 1.12-.27v.743c-.193.121-.527.22-1.001.29-.107.016-.273.037-.495.066-.223.029-.409.053-.561.076a2.453 2.453 0 00-.748.198 1.964 1.964 0 00-.597.462c-.194.211-.348.52-.463.92-.114.402-.19.901-.226 1.496.15-.523.411-.933.781-1.226.373-.294.83-.442 1.375-.442zm-.162 4.854c.532 0 .951-.185 1.26-.555.31-.37.463-.87.463-1.501 0-.632-.155-1.131-.463-1.501-.309-.37-.728-.555-1.26-.555-.538 0-.962.185-1.27.555-.309.37-.462.87-.462 1.501 0 .632.155 1.131.462 1.501.31.37.733.555 1.27.555zm3.414-.861c0-1.011.739-1.59 2.218-1.733l1.679-.161V4.81c0-.352-.113-.636-.339-.856-.227-.22-.558-.324-.995-.317-.402 0-.732.091-.991.274-.258.184-.399.458-.42.824h-.872c.022-.61.24-1.06.657-1.35.415-.292.958-.437 1.626-.437.739 0 1.303.176 1.69.527.388.352.581.857.581 1.518v3.724h-.861V7.556a2.07 2.07 0 01-.818.952c-.366.226-.812.34-1.335.34-.603 0-1.057-.15-1.362-.448-.307-.298-.458-.684-.458-1.157zm.937-.033c0 .28.096.509.291.688.195.18.484.27.872.27.552 0 .991-.175 1.314-.522.323-.348.485-.798.485-1.35V5.95l-1.572.162c-.928.086-1.39.452-1.39 1.098zm-32.782 12.543v-5.638h.947v2.378h2.918v-2.378h.937v5.638h-.937v-2.486h-2.918v2.486h-.947zm5.91-2.818c0-.962.242-1.693.726-2.195.485-.503 1.129-.754 1.933-.754.825 0 1.454.256 1.889.765.433.509.651 1.284.651 2.324v.13h-4.252c.036.646.214 1.14.533 1.48.319.341.737.512 1.254.512.732 0 1.232-.323 1.497-.968l.893.053a2.131 2.131 0 01-.84 1.179c-.408.283-.926.425-1.55.425-.839 0-1.505-.25-1.997-.748-.491-.5-.737-1.235-.737-2.203zm.958-.356h3.306c-.007-.588-.156-1.053-.447-1.394-.292-.34-.677-.512-1.157-.512-.474 0-.865.163-1.173.49-.309.327-.486.799-.529 1.416zm9.711 2.401h.657v2.291h-.893v-1.518h-3.864v1.518h-.893v-2.292h.419a3.52 3.52 0 00.221-.673c.061-.262.115-.669.162-1.22.047-.553.078-.96.096-1.222.018-.262.053-.844.102-1.748h3.995v4.863h-.002zm-.948 0v-4.09h-2.229c-.13 1.843-.233 2.988-.312 3.433a4.565 4.565 0 01-.172.656h2.713zm5.544-2.132c1.106.1 1.658.56 1.658 1.377 0 .444-.161.81-.484 1.098-.323.287-.84.43-1.55.43h-2.66v-5.638h2.53c.653 0 1.148.13 1.485.387.337.258.507.603.507 1.034.001.731-.495 1.168-1.486 1.312zm-2.088-2.023v1.744h1.507c.38 0 .663-.078.845-.237a.793.793 0 00.275-.635c0-.58-.391-.872-1.173-.872h-1.454zm1.604 4.22c.796 0 1.195-.313 1.195-.938 0-.61-.417-.914-1.249-.914h-1.55v1.851h1.604zm6.804-4.93h1.411v5.638h-.904v-4.96l-2.627 4.96h-1.421v-5.638h.915v4.96l2.626-4.96zm10.658 5.638h-1.162l-1.895-2.486h-.699v2.486h-.927v-2.486h-.699l-1.895 2.486h-1.163l2.347-2.927-2.261-2.713h1.119l1.82 2.41h.731v-2.408h.926v2.41h.732l1.819-2.41h1.119l-2.261 2.712 2.349 2.926zm4.349-5.638h1.411v5.638h-.904v-4.96l-2.627 4.96h-1.421v-5.638h.915v4.96l2.626-4.96zm8.021 0h1.572v5.638h-.915v-4.982l-1.873 4.982h-1.184l-1.862-4.982v4.982h-.915v-5.638h1.583l1.798 5.122 1.796-5.122zm3.408 4.977c-.485-.527-.728-1.247-.728-2.157 0-.911.243-1.631.728-2.158.484-.527 1.131-.79 1.943-.79.811 0 1.457.263 1.938.79.48.527.722 1.247.722 2.158 0 .91-.241 1.63-.722 2.157-.481.527-1.127.79-1.938.79-.812 0-1.459-.263-1.943-.79zm.677-3.76c-.312.4-.468.936-.468 1.603 0 .667.156 1.201.468 1.603.312.401.735.603 1.266.603.523 0 .943-.202 1.255-.603.311-.402.467-.937.467-1.603 0-.668-.156-1.202-.467-1.603-.312-.402-.731-.603-1.255-.603-.531 0-.954.2-1.266.603zm4.709 1.603c0-.94.234-1.667.7-2.18.467-.513 1.099-.77 1.895-.77.646 0 1.19.173 1.632.516.441.345.705.836.791 1.475l-.905.085c-.071-.437-.245-.77-.521-.994a1.524 1.524 0 00-.997-.34c-.502 0-.904.196-1.206.587-.301.39-.453.93-.453 1.62 0 .688.152 1.229.458 1.62.306.39.713.585 1.222.585.402 0 .741-.12 1.017-.36.276-.24.454-.582.533-1.027l.904.075c-.086.653-.352 1.16-.796 1.518-.445.359-.998.538-1.658.538-.812 0-1.449-.254-1.916-.764-.466-.51-.7-1.238-.7-2.184zm5.513-2.045v-.775h4.759v.775h-1.906v4.865h-.947V14.89h-1.906zm9.236-.775h1.411v5.638h-.904v-4.96l-2.627 4.96h-1.421v-5.638h.915v4.96l2.626-4.96z"/></g><defs><clipPath id="clip0_1245_117"><path fill="#fff" d="M0 0h230v22H0z"/></clipPath></defs></svg>
